build/svg/cmd/ca/lc_italic.svg

<?xml version="1.0" encoding="UTF-8" standalone="no"?>
<svg
   xmlns:dc="http://purl.org/dc/elements/1.1/"
   xmlns:cc="http://creativecommons.org/ns#"
   xmlns:rdf="http://www.w3.org/1999/02/22-rdf-syntax-ns#"
   xmlns:svg="http://www.w3.org/2000/svg"
   xmlns="http://www.w3.org/2000/svg"
   xmlns:sodipodi="http://sodipodi.sourceforge.net/DTD/sodipodi-0.dtd"
   xmlns:inkscape="http://www.inkscape.org/namespaces/inkscape"
   viewBox="0 0 24 24"
   version="1.1"
   id="svg4"
   sodipodi:docname="lc_italic.svg"
   inkscape:export-filename="/home/jupiter007/Libreoffice yaru theme fullcolor/build/cmd/ca/lc_italic.png"
   inkscape:export-xdpi="96"
   inkscape:export-ydpi="96"
   inkscape:version="0.92.5 (2060ec1f9f, 2020-04-08)">
  <metadata
     id="metadata10">
    <rdf:RDF>
      <cc:Work
         rdf:about="">
        <dc:format>image/svg+xml</dc:format>
        <dc:type
           rdf:resource="http://purl.org/dc/dcmitype/StillImage" />
      </cc:Work>
    </rdf:RDF>
  </metadata>
  <defs
     id="defs8" />
  <sodipodi:namedview
     pagecolor="#ffffff"
     bordercolor="#666666"
     borderopacity="1"
     objecttolerance="10"
     gridtolerance="10"
     guidetolerance="10"
     inkscape:pageopacity="0"
     inkscape:pageshadow="2"
     inkscape:window-width="1920"
     inkscape:window-height="1011"
     id="namedview6"
     showgrid="true"
     inkscape:zoom="19.666667"
     inkscape:cx="8.8535087"
     inkscape:cy="11.690916"
     inkscape:window-x="1920"
     inkscape:window-y="32"
     inkscape:window-maximized="1"
     inkscape:current-layer="svg4">
    <inkscape:grid
       type="xygrid"
       id="grid812" />
  </sodipodi:namedview>
  <path
     inkscape:connector-curvature="0"
     style="opacity:0.6;fill:#000000;stroke:#000000;stroke-width:3;stroke-linejoin:round;stroke-miterlimit:4;stroke-dasharray:none;stroke-opacity:1"
     id="path816"
     d="m 13.788281,4.5004687 c -1.162293,0 -2.252371,0.2269698 -3.271484,0.6796875 C 9.4976845,5.6328741 8.6087988,6.2683372 7.8507812,7.0864062 6.2517601,8.8420607 5.4915972,10.246838 5.425,12.769531 c 0,0.984859 0.1347796,1.888832 0.4042969,2.714844 0.2779398,0.826011 0.6737326,1.537132 1.1875,2.132813 0.5137675,0.595682 1.1416398,1.060949 1.8828125,1.394531 C 9.6492045,19.337358 10.495362,19.5 11.438672,19.5 c 1.195983,0 2.248582,-0.202358 3.158203,-0.607422 0.918043,-0.413005 1.723423,-0.993647 2.414063,-1.740234 l -0.796876,-0.904297 c -0.04211,-0.07943 -0.134162,-0.119141 -0.277343,-0.119141 -0.126336,0 -0.278207,0.08321 -0.455078,0.25 -0.176871,0.158848 -0.417496,0.336595 -0.720703,0.535156 -0.303208,0.19856 -0.690455,0.382038 -1.16211,0.548829 -0.471655,0.158852 -1.065345,0.238281 -1.78125,0.238281 C 6.8017694,17.093333 6.4249619,11.939823 9.4171875,8.2895313 9.9562222,7.6541379 10.587391,7.1699878 11.311719,6.8364062 c 0.73275,-0.3415238 1.51579,-0.5136718 2.349609,-0.5136718 0.412699,0 0.776262,0.03594 1.087891,0.1074218 0.311629,0.063539 0.581188,0.1467486 0.808593,0.25 0.227405,0.1032514 0.420052,0.2148482 0.580079,0.3339844 0.160025,0.111194 0.300054,0.2190143 0.417968,0.3222656 0.126336,0.1032514 0.235478,0.1902369 0.328125,0.2617187 0.09265,0.063539 0.184694,0.095703 0.277344,0.095703 0.117913,0 0.215216,-0.024611 0.291016,-0.072266 0.0758,-0.047655 0.147464,-0.1062523 0.214844,-0.1777344 L 18.425,6.5727344 C 18.172328,6.2550376 17.890926,5.9694698 17.579297,5.7153125 17.276089,5.4532127 16.934867,5.2357487 16.555859,5.0610156 16.185273,4.87834 15.772389,4.7383559 15.317578,4.6430469 14.862769,4.5477383 14.352584,4.5004687 13.788281,4.5004687 Z"
     sodipodi:nodetypes="sscccscscccsccccccscscccssccccss" />
  <path
     d="m 13.788281,4.5004687 c -1.162293,0 -2.252371,0.2269698 -3.271484,0.6796875 C 9.4976845,5.6328741 8.6087988,6.2683372 7.8507812,7.0864062 6.2517601,8.8420607 5.4915972,10.246838 5.425,12.769531 c 0,0.984859 0.1347796,1.888832 0.4042969,2.714844 0.2779398,0.826011 0.6737326,1.537132 1.1875,2.132813 0.5137675,0.595682 1.1416398,1.060949 1.8828125,1.394531 C 9.6492045,19.337358 10.495362,19.5 11.438672,19.5 c 1.195983,0 2.248582,-0.202358 3.158203,-0.607422 0.918043,-0.413005 1.723423,-0.993647 2.414063,-1.740234 l -0.796876,-0.904297 c -0.04211,-0.07943 -0.134162,-0.119141 -0.277343,-0.119141 -0.126336,0 -0.278207,0.08321 -0.455078,0.25 -0.176871,0.158848 -0.417496,0.336595 -0.720703,0.535156 -0.303208,0.19856 -0.690455,0.382038 -1.16211,0.548829 -0.471655,0.158852 -1.065345,0.238281 -1.78125,0.238281 C 6.8017694,17.093333 6.4249619,11.939823 9.4171875,8.2895313 9.9562222,7.6541379 10.587391,7.1699878 11.311719,6.8364062 c 0.73275,-0.3415238 1.51579,-0.5136718 2.349609,-0.5136718 0.412699,0 0.776262,0.03594 1.087891,0.1074218 0.311629,0.063539 0.581188,0.1467486 0.808593,0.25 0.227405,0.1032514 0.420052,0.2148482 0.580079,0.3339844 0.160025,0.111194 0.300054,0.2190143 0.417968,0.3222656 0.126336,0.1032514 0.235478,0.1902369 0.328125,0.2617187 0.09265,0.063539 0.184694,0.095703 0.277344,0.095703 0.117913,0 0.215216,-0.024611 0.291016,-0.072266 0.0758,-0.047655 0.147464,-0.1062523 0.214844,-0.1777344 L 18.425,6.5727344 C 18.172328,6.2550376 17.890926,5.9694698 17.579297,5.7153125 17.276089,5.4532127 16.934867,5.2357487 16.555859,5.0610156 16.185273,4.87834 15.772389,4.7383559 15.317578,4.6430469 14.862769,4.5477383 14.352584,4.5004687 13.788281,4.5004687 Z"
     id="path2"
     style="fill:#ffffff;stroke:#ffffff;stroke-width:1;stroke-miterlimit:4;stroke-dasharray:none;stroke-opacity:1"
     inkscape:connector-curvature="0"
     sodipodi:nodetypes="sscccscscccsccccccscscccssccccss" />
</svg>

<svg xmlns="http://www.w3.org/2000/svg" viewBox="0 0 24 24"><path d="M13.788 4.5a7.966 7.966 0 00-3.271.68A8.058 8.058 0 007.85 7.086c-1.6 1.756-2.36 3.16-2.426 5.684 0 .984.135 1.888.404 2.714.278.826.674 1.538 1.188 2.133A5.354 5.354 0 008.9 19.012c.75.325 1.595.488 2.539.488 1.196 0 2.248-.202 3.158-.607a7.39 7.39 0 002.414-1.74l-.797-.905c-.042-.08-.134-.12-.277-.12-.127 0-.278.084-.455.25a6.125 6.125 0 01-.721.536c-.303.199-.69.382-1.162.549-.472.159-1.066.238-1.781.238-5.016-.608-5.393-5.761-2.4-9.411a5.494 5.494 0 014.244-1.967c.412 0 .776.036 1.087.107.312.064.581.147.809.25.227.103.42.215.58.334.16.111.3.22.418.322.126.104.235.19.328.262a.488.488 0 00.277.096.54.54 0 00.291-.072c.076-.048.148-.107.215-.178l.758-.871a5.6 5.6 0 00-.846-.858 4.319 4.319 0 00-1.023-.654 5.205 5.205 0 00-1.238-.418 7.487 7.487 0 00-1.53-.143z" opacity=".6" stroke="#000" stroke-width="3" stroke-linejoin="round"/><path d="M13.788 4.5a7.966 7.966 0 00-3.271.68A8.058 8.058 0 007.85 7.086c-1.6 1.756-2.36 3.16-2.426 5.684 0 .984.135 1.888.404 2.714.278.826.674 1.538 1.188 2.133A5.354 5.354 0 008.9 19.012c.75.325 1.595.488 2.539.488 1.196 0 2.248-.202 3.158-.607a7.39 7.39 0 002.414-1.74l-.797-.905c-.042-.08-.134-.12-.277-.12-.127 0-.278.084-.455.25a6.125 6.125 0 01-.721.536c-.303.199-.69.382-1.162.549-.472.159-1.066.238-1.781.238-5.016-.608-5.393-5.761-2.4-9.411a5.494 5.494 0 014.244-1.967c.412 0 .776.036 1.087.107.312.064.581.147.809.25.227.103.42.215.58.334.16.111.3.22.418.322.126.104.235.19.328.262a.488.488 0 00.277.096.54.54 0 00.291-.072c.076-.048.148-.107.215-.178l.758-.871a5.6 5.6 0 00-.846-.858 4.319 4.319 0 00-1.023-.654 5.205 5.205 0 00-1.238-.418 7.487 7.487 0 00-1.53-.143z" fill="#fff" stroke="#fff"/></svg>
